assets/1. Faces/Flexed biceps/Dark/Color/flexed_biceps_color_dark.svg

<svg width="100%" height="100%" viewBox="0 0 32 32" fill="none" xmlns="http://www.w3.org/2000/svg">
<g filter="url(#filter0_i_20020_4301)">
<path d="M7.96785 8.6875H6.32722L2.57753 19.875C0.843154 25.7812 3.97658 29.8438 8.79677 29.8438H21.6241C26.2078 29.7854 29.9057 26.0507 29.9057 21.4531C29.9057 16.8191 26.1491 13.0625 21.515 13.0625C17.8744 13.0625 14.7754 15.3811 13.614 18.6222C13.5801 18.7168 13.4911 18.7812 13.3906 18.7812V18.7812C13.3036 18.7812 13.2238 18.7329 13.1835 18.6558L7.96785 8.6875Z" fill="#452E2C"/>
</g>
<path d="M7.96785 8.6875H6.32722L2.57753 19.875C0.843154 25.7812 3.97658 29.8438 8.79677 29.8438H21.6241C26.2078 29.7854 29.9057 26.0507 29.9057 21.4531C29.9057 16.8191 26.1491 13.0625 21.515 13.0625C17.8744 13.0625 14.7754 15.3811 13.614 18.6222C13.5801 18.7168 13.4911 18.7812 13.3906 18.7812V18.7812C13.3036 18.7812 13.2238 18.7329 13.1835 18.6558L7.96785 8.6875Z" fill="url(#paint0_linear_20020_4301)"/>
<path d="M7.96785 8.6875H6.32722L2.57753 19.875C0.843154 25.7812 3.97658 29.8438 8.79677 29.8438H21.6241C26.2078 29.7854 29.9057 26.0507 29.9057 21.4531C29.9057 16.8191 26.1491 13.0625 21.515 13.0625C17.8744 13.0625 14.7754 15.3811 13.614 18.6222C13.5801 18.7168 13.4911 18.7812 13.3906 18.7812V18.7812C13.3036 18.7812 13.2238 18.7329 13.1835 18.6558L7.96785 8.6875Z" fill="url(#paint1_radial_20020_4301)"/>
<path d="M7.96785 8.6875H6.32722L2.57753 19.875C0.843154 25.7812 3.97658 29.8438 8.79677 29.8438H21.6241C26.2078 29.7854 29.9057 26.0507 29.9057 21.4531C29.9057 16.8191 26.1491 13.0625 21.515 13.0625C17.8744 13.0625 14.7754 15.3811 13.614 18.6222C13.5801 18.7168 13.4911 18.7812 13.3906 18.7812V18.7812C13.3036 18.7812 13.2238 18.7329 13.1835 18.6558L7.96785 8.6875Z" fill="url(#paint2_radial_20020_4301)"/>
<path d="M7.96785 8.6875H6.32722L2.57753 19.875C0.843154 25.7812 3.97658 29.8438 8.79677 29.8438H21.6241C26.2078 29.7854 29.9057 26.0507 29.9057 21.4531C29.9057 16.8191 26.1491 13.0625 21.515 13.0625C17.8744 13.0625 14.7754 15.3811 13.614 18.6222C13.5801 18.7168 13.4911 18.7812 13.3906 18.7812V18.7812C13.3036 18.7812 13.2238 18.7329 13.1835 18.6558L7.96785 8.6875Z" fill="url(#paint3_radial_20020_4301)"/>
<path d="M21.9518 29.8326C26.3828 29.6054 29.9056 25.9407 29.9056 21.4531C29.9056 16.8191 26.149 13.0625 21.515 13.0625C17.8767 13.0625 14.7793 15.3782 13.6162 18.616C13.5605 18.7709 13.5911 18.9429 13.6913 19.0734L21.9518 29.8326Z" fill="url(#paint4_radial_20020_4301)"/>
<path d="M21.9518 29.8326C26.3828 29.6054 29.9056 25.9407 29.9056 21.4531C29.9056 16.8191 26.149 13.0625 21.515 13.0625C17.8767 13.0625 14.7793 15.3782 13.6162 18.616C13.5605 18.7709 13.5911 18.9429 13.6913 19.0734L21.9518 29.8326Z" fill="url(#paint5_radial_20020_4301)"/>
<path d="M7.3197 5.88278L6.29626 8.77731L6.79483 9.73964C7.14061 10.4262 7.84374 10.8593 8.61246 10.8593H13.5531C14.5694 10.8593 15.4845 10.2441 15.8682 9.30305L15.9553 9.08937C16.6681 7.34083 15.8654 5.3421 14.1412 4.57227L12.3666 3.82028C10.1947 3.01559 8.08442 3.86758 7.3197 5.88278Z" fill="url(#paint6_linear_20020_4301)"/>
<path d="M7.3197 5.88278L6.29626 8.77731L6.79483 9.73964C7.14061 10.4262 7.84374 10.8593 8.61246 10.8593H13.5531C14.5694 10.8593 15.4845 10.2441 15.8682 9.30305L15.9553 9.08937C16.6681 7.34083 15.8654 5.3421 14.1412 4.57227L12.3666 3.82028C10.1947 3.01559 8.08442 3.86758 7.3197 5.88278Z" fill="url(#paint7_radial_20020_4301)"/>
<path d="M7.3197 5.88278L6.29626 8.77731L6.79483 9.73964C7.14061 10.4262 7.84374 10.8593 8.61246 10.8593H13.5531C14.5694 10.8593 15.4845 10.2441 15.8682 9.30305L15.9553 9.08937C16.6681 7.34083 15.8654 5.3421 14.1412 4.57227L12.3666 3.82028C10.1947 3.01559 8.08442 3.86758 7.3197 5.88278Z" fill="url(#paint8_radial_20020_4301)"/>
<g filter="url(#filter1_f_20020_4301)">
<path d="M13.1713 19.5312L6.54626 28.25H20.3275L13.7963 19.5312H13.1713Z" fill="url(#paint9_linear_20020_4301)"/>
<path d="M13.1713 19.5312L6.54626 28.25H20.3275L13.7963 19.5312H13.1713Z" fill="url(#paint10_radial_20020_4301)"/>
<path d="M13.1713 19.5312L6.54626 28.25H20.3275L13.7963 19.5312H13.1713Z" fill="url(#paint11_radial_20020_4301)"/>
</g>
<g filter="url(#filter2_f_20020_4301)">
<path d="M11.4488 5.11133L13.8324 6.0957C14.234 6.24413 14.7413 6.77539 14.796 7.55664C14.8536 8.37855 14.2721 9.04057 13.9054 9.26758" stroke="url(#paint12_linear_20020_4301)" stroke-width="1.5" stroke-linecap="round"/>
</g>
<rect x="6.28064" y="7.74219" width="8.91406" height="4.07031" rx="2.03516" fill="url(#paint13_linear_20020_4301)"/>
<rect x="6.28064" y="7.74219" width="8.91406" height="4.07031" rx="2.03516" fill="url(#paint14_linear_20020_4301)"/>
<rect x="6.28064" y="7.74219" width="8.91406" height="4.07031" rx="2.03516" fill="url(#paint15_radial_20020_4301)"/>
<path d="M10.6531 5.85254L10.0004 7.77305L13.7507 7.77305L10.6531 5.85254Z" fill="url(#paint16_radial_20020_4301)"/>
<g filter="url(#filter3_f_20020_4301)">
<path d="M9.40564 6.27722L10.7963 7.16819V7.77944H9.40564V6.27722Z" fill="url(#paint17_linear_20020_4301)"/>
</g>
<defs>
<filter id="filter0_i_20020_4301" x="2.0943" y="7.1875" width="28.8113" height="22.6562" filterUnits="userSpaceOnUse" color-interpolation-filters="sRGB">
<feFlood flood-opacity="0" result="BackgroundImageFix"/>
<feBlend mode="normal" in="SourceGraphic" in2="BackgroundImageFix" result="shape"/>
<feColorMatrix in="SourceAlpha" type="matrix" values="0 0 0 0 0 0 0 0 0 0 0 0 0 0 0 0 0 0 127 0" result="hardAlpha"/>
<feOffset dx="1" dy="-1.5"/>
<feGaussianBlur stdDeviation="1.5"/>
<feComposite in2="hardAlpha" operator="arithmetic" k2="-1" k3="1"/>
<feColorMatrix type="matrix" values="0 0 0 0 0.247059 0 0 0 0 0.172549 0 0 0 0 0.160784 0 0 0 1 0"/>
<feBlend mode="normal" in2="shape" result="effect1_innerShadow_20020_4301"/>
</filter>
<filter id="filter1_f_20020_4301" x="5.54626" y="18.5312" width="15.7812" height="10.7188" filterUnits="userSpaceOnUse" color-interpolation-filters="sRGB">
<feFlood flood-opacity="0" result="BackgroundImageFix"/>
<feBlend mode="normal" in="SourceGraphic" in2="BackgroundImageFix" result="shape"/>
<feGaussianBlur stdDeviation="0.5" result="effect1_foregroundBlur_20020_4301"/>
</filter>
<filter id="filter2_f_20020_4301" x="9.69861" y="3.36108" width="6.85138" height="7.65662" filterUnits="userSpaceOnUse" color-interpolation-filters="sRGB">
<feFlood flood-opacity="0" result="BackgroundImageFix"/>
<feBlend mode="normal" in="SourceGraphic" in2="BackgroundImageFix" result="shape"/>
<feGaussianBlur stdDeviation="0.5" result="effect1_foregroundBlur_20020_4301"/>
</filter>
<filter id="filter3_f_20020_4301" x="8.90564" y="5.77722" width="2.39062" height="2.5022" filterUnits="userSpaceOnUse" color-interpolation-filters="sRGB">
<feFlood flood-opacity="0" result="BackgroundImageFix"/>
<feBlend mode="normal" in="SourceGraphic" in2="BackgroundImageFix" result="shape"/>
<feGaussianBlur stdDeviation="0.25" result="effect1_foregroundBlur_20020_4301"/>
</filter>
<linearGradient id="paint0_linear_20020_4301" x1="16" y1="30.8125" x2="16" y2="27.1892" gradientUnits="userSpaceOnUse">
<stop stop-color="#432942"/>
<stop offset="1" stop-color="#432942" stop-opacity="0"/>
</linearGradient>
<radialGradient id="paint1_radial_20020_4301" cx="0" cy="0" r="1" gradientUnits="userSpaceOnUse" gradientTransform="translate(10.6215 18.002) rotate(84.2894) scale(7.55217 3.96302)">
<stop stop-color="#6D5957"/>
<stop offset="1" stop-color="#6D5957" stop-opacity="0"/>
</radialGradient>
<radialGradient id="paint2_radial_20020_4301" cx="0" cy="0" r="1" gradientUnits="userSpaceOnUse" gradientTransform="translate(13.4681 18.2969) rotate(-90) scale(2.0625 0.859375)">
<stop stop-color="#4A4443"/>
<stop offset="1" stop-color="#4A4443" stop-opacity="0"/>
</radialGradient>
<radialGradient id="paint3_radial_20020_4301" cx="0" cy="0" r="1" gradientUnits="userSpaceOnUse" gradientTransform="translate(8.9375 11.5313) rotate(158.199) scale(1.178 2.56546)">
<stop offset="0.210581" stop-color="#2E1D1C"/>
<stop offset="1" stop-color="#2E1D1C" stop-opacity="0"/>
</radialGradient>
<radialGradient id="paint4_radial_20020_4301" cx="0" cy="0" r="1" gradientUnits="userSpaceOnUse" gradientTransform="translate(26.0625 19.9375) rotate(149.704) scale(6.44235 5.72687)">
<stop stop-color="#685250"/>
<stop offset="1" stop-color="#685250" stop-opacity="0"/>
</radialGradient>
<radialGradient id="paint5_radial_20020_4301" cx="0" cy="0" r="1" gradientUnits="userSpaceOnUse" gradientTransform="translate(23.8075 23.7864) rotate(-133.434) scale(12.8013 15.1333)">
<stop offset="0.720835" stop-color="#281816" stop-opacity="0"/>
<stop offset="1" stop-color="#281816"/>
</radialGradient>
<linearGradient id="paint6_linear_20020_4301" x1="8.40564" y1="9.62496" x2="16.8431" y2="7.62496" gradientUnits="userSpaceOnUse">
<stop stop-color="#3E2928"/>
<stop offset="1" stop-color="#583F3C"/>
</linearGradient>
<radialGradient id="paint7_radial_20020_4301" cx="0" cy="0" r="1" gradientUnits="userSpaceOnUse" gradientTransform="translate(10.0931 9.71871) rotate(-30.1963) scale(7.083 12.6242)">
<stop offset="0.560064" stop-color="#65504C" stop-opacity="0"/>
<stop offset="1" stop-color="#65504C"/>
</radialGradient>
<radialGradient id="paint8_radial_20020_4301" cx="0" cy="0" r="1" gradientUnits="userSpaceOnUse" gradientTransform="translate(11.464 8.39057) rotate(-122.735) scale(5.48766 7.79014)">
<stop offset="0.742479" stop-color="#483B39" stop-opacity="0"/>
<stop offset="1" stop-color="#483B39"/>
</radialGradient>
<linearGradient id="paint9_linear_20020_4301" x1="13.4213" y1="19.5312" x2="13.4213" y2="28.625" gradientUnits="userSpaceOnUse">
<stop stop-color="#4B3432"/>
<stop offset="1" stop-color="#4B3432" stop-opacity="0"/>
</linearGradient>
<radialGradient id="paint10_radial_20020_4301" cx="0" cy="0" r="1" gradientUnits="userSpaceOnUse" gradientTransform="translate(10.7181 21) rotate(33.9174) scale(2.18415 4.33652)">
<stop stop-color="#695352"/>
<stop offset="1" stop-color="#695352" stop-opacity="0"/>
</radialGradient>
<radialGradient id="paint11_radial_20020_4301" cx="0" cy="0" r="1" gradientUnits="userSpaceOnUse" gradientTransform="translate(16.9151 22.229) rotate(143.906) scale(1.94536 8.27452)">
<stop offset="0.23109" stop-color="#271614"/>
<stop offset="1" stop-color="#271614" stop-opacity="0"/>
</radialGradient>
<linearGradient id="paint12_linear_20020_4301" x1="14.812" y1="7.56041" x2="11.0035" y2="5.88403" gradientUnits="userSpaceOnUse">
<stop stop-color="#5D4C4A"/>
<stop offset="1" stop-color="#5D4C4A" stop-opacity="0"/>
</linearGradient>
<linearGradient id="paint13_linear_20020_4301" x1="8.68689" y1="10.25" x2="14.4369" y2="10.25" gradientUnits="userSpaceOnUse">
<stop stop-color="#3F2928"/>
<stop offset="1" stop-color="#4D3634"/>
</linearGradient>
<linearGradient id="paint14_linear_20020_4301" x1="10.7377" y1="12.4673" x2="10.7377" y2="9.4693" gradientUnits="userSpaceOnUse">
<stop stop-color="#311E28"/>
<stop offset="1" stop-color="#311E28" stop-opacity="0"/>
</linearGradient>
<radialGradient id="paint15_radial_20020_4301" cx="0" cy="0" r="1" gradientUnits="userSpaceOnUse" gradientTransform="translate(13.8431 9.53125) rotate(137.353) scale(1.61445 1.40902)">
<stop stop-color="#644F4E"/>
<stop offset="1" stop-color="#644F4E" stop-opacity="0"/>
</radialGradient>
<radialGradient id="paint16_radial_20020_4301" cx="0" cy="0" r="1" gradientUnits="userSpaceOnUse" gradientTransform="translate(11.4922 7.92456) rotate(-90) scale(1.21213 1.47114)">
<stop stop-color="#0C0405"/>
<stop offset="1" stop-color="#321D1D" stop-opacity="0"/>
</radialGradient>
<linearGradient id="paint17_linear_20020_4301" x1="10.39" y1="6.74994" x2="9.85631" y2="7.98061" gradientUnits="userSpaceOnUse">
<stop stop-color="#5C4C4B"/>
<stop offset="1" stop-color="#5C4C4B" stop-opacity="0"/>
</linearGradient>
</defs>
</svg>

<svg width="100%" height="100%" viewBox="0 0 32 32" xmlns="http://www.w3.org/2000/svg"><g filter="url(#a)"><path fill="#452E2C" d="M7.968 8.688h-1.64l-3.75 11.187c-1.735 5.906 1.399 9.969 6.219 9.969h12.827a8.391 8.391 0 1 0-8.01-11.222.24.24 0 0 1-.223.16.23.23 0 0 1-.207-.126z"/></g><path fill="url(#b)" d="M7.968 8.688h-1.64l-3.75 11.187c-1.735 5.906 1.399 9.969 6.219 9.969h12.827a8.391 8.391 0 1 0-8.01-11.222.24.24 0 0 1-.223.16.23.23 0 0 1-.207-.126z"/><path fill="url(#c)" d="M7.968 8.688h-1.64l-3.75 11.187c-1.735 5.906 1.399 9.969 6.219 9.969h12.827a8.391 8.391 0 1 0-8.01-11.222.24.24 0 0 1-.223.16.23.23 0 0 1-.207-.126z"/><path fill="url(#d)" d="M7.968 8.688h-1.64l-3.75 11.187c-1.735 5.906 1.399 9.969 6.219 9.969h12.827a8.391 8.391 0 1 0-8.01-11.222.24.24 0 0 1-.223.16.23.23 0 0 1-.207-.126z"/><path fill="url(#e)" d="M7.968 8.688h-1.64l-3.75 11.187c-1.735 5.906 1.399 9.969 6.219 9.969h12.827a8.391 8.391 0 1 0-8.01-11.222.24.24 0 0 1-.223.16.23.23 0 0 1-.207-.126z"/><path fill="url(#f)" d="M21.952 29.833a8.39 8.39 0 1 0-8.336-11.217.48.48 0 0 0 .075.457z"/><path fill="url(#g)" d="M21.952 29.833a8.39 8.39 0 1 0-8.336-11.217.48.48 0 0 0 .075.457z"/><path fill="url(#h)" d="M7.32 5.883 6.296 8.777l.499.963a2.04 2.04 0 0 0 1.817 1.12h4.941a2.5 2.5 0 0 0 2.315-1.557l.087-.214a3.5 3.5 0 0 0-1.814-4.517l-1.774-.752c-2.172-.804-4.283.048-5.047 2.063"/><path fill="url(#i)" d="M7.32 5.883 6.296 8.777l.499.963a2.04 2.04 0 0 0 1.817 1.12h4.941a2.5 2.5 0 0 0 2.315-1.557l.087-.214a3.5 3.5 0 0 0-1.814-4.517l-1.774-.752c-2.172-.804-4.283.048-5.047 2.063"/><path fill="url(#j)" d="M7.32 5.883 6.296 8.777l.499.963a2.04 2.04 0 0 0 1.817 1.12h4.941a2.5 2.5 0 0 0 2.315-1.557l.087-.214a3.5 3.5 0 0 0-1.814-4.517l-1.774-.752c-2.172-.804-4.283.048-5.047 2.063"/><g filter="url(#k)"><path fill="url(#l)" d="M13.171 19.531 6.546 28.25h13.782l-6.532-8.719z"/><path fill="url(#m)" d="M13.171 19.531 6.546 28.25h13.782l-6.532-8.719z"/><path fill="url(#n)" d="M13.171 19.531 6.546 28.25h13.782l-6.532-8.719z"/></g><g filter="url(#o)"><path stroke="url(#p)" stroke-linecap="round" stroke-width="1.5" d="m11.449 5.111 2.383.985c.402.148.91.68.964 1.46.058.823-.524 1.485-.89 1.712"/></g><rect width="8.914" height="4.07" x="6.281" y="7.742" fill="url(#q)" rx="2.035"/><rect width="8.914" height="4.07" x="6.281" y="7.742" fill="url(#r)" rx="2.035"/><rect width="8.914" height="4.07" x="6.281" y="7.742" fill="url(#s)" rx="2.035"/><path fill="url(#t)" d="M10.653 5.853 10 7.773h3.75z"/><g filter="url(#u)"><path fill="url(#v)" d="m9.406 6.277 1.39.891v.611h-1.39z"/></g><defs><radialGradient id="c" cx="0" cy="0" r="1" gradientTransform="rotate(84.289 -4.635 14.87)scale(7.55217 3.96302)" gradientUnits="userSpaceOnUse"><stop stop-color="#6D5957"/><stop offset="1" stop-color="#6D5957" stop-opacity="0"/></radialGradient><radialGradient id="d" cx="0" cy="0" r="1" gradientTransform="matrix(0 -2.0625 .85938 0 13.468 18.297)" gradientUnits="userSpaceOnUse"><stop stop-color="#4A4443"/><stop offset="1" stop-color="#4A4443" stop-opacity="0"/></radialGradient><radialGradient id="e" cx="0" cy="0" r="1" gradientTransform="rotate(158.199 3.358 6.626)scale(1.178 2.56546)" gradientUnits="userSpaceOnUse"><stop offset=".211" stop-color="#2E1D1C"/><stop offset="1" stop-color="#2E1D1C" stop-opacity="0"/></radialGradient><radialGradient id="f" cx="0" cy="0" r="1" gradientTransform="matrix(-5.56252 3.24996 -2.88902 -4.94476 26.063 19.938)" gradientUnits="userSpaceOnUse"><stop stop-color="#685250"/><stop offset="1" stop-color="#685250" stop-opacity="0"/></radialGradient><radialGradient id="g" cx="0" cy="0" r="1" gradientTransform="matrix(-8.80113 -9.29588 10.9893 -10.40442 23.808 23.786)" gradientUnits="userSpaceOnUse"><stop offset=".721" stop-color="#281816" stop-opacity="0"/><stop offset="1" stop-color="#281816"/></radialGradient><radialGradient id="i" cx="0" cy="0" r="1" gradientTransform="rotate(-30.196 23.058 -13.846)scale(7.083 12.6242)" gradientUnits="userSpaceOnUse"><stop offset=".56" stop-color="#65504C" stop-opacity="0"/><stop offset="1" stop-color="#65504C"/></radialGradient><radialGradient id="j" cx="0" cy="0" r="1" gradientTransform="rotate(-122.735 8.022 1.066)scale(5.48766 7.79014)" gradientUnits="userSpaceOnUse"><stop offset=".742" stop-color="#483B39" stop-opacity="0"/><stop offset="1" stop-color="#483B39"/></radialGradient><radialGradient id="m" cx="0" cy="0" r="1" gradientTransform="matrix(1.8125 1.21875 -2.41977 3.59863 10.718 21)" gradientUnits="userSpaceOnUse"><stop stop-color="#695352"/><stop offset="1" stop-color="#695352" stop-opacity="0"/></radialGradient><radialGradient id="n" cx="0" cy="0" r="1" gradientTransform="rotate(143.906 4.836 13.87)scale(1.94536 8.27452)" gradientUnits="userSpaceOnUse"><stop offset=".231" stop-color="#271614"/><stop offset="1" stop-color="#271614" stop-opacity="0"/></radialGradient><radialGradient id="s" cx="0" cy="0" r="1" gradientTransform="rotate(137.353 5.061 7.467)scale(1.61445 1.40902)" gradientUnits="userSpaceOnUse"><stop stop-color="#644F4E"/><stop offset="1" stop-color="#644F4E" stop-opacity="0"/></radialGradient><radialGradient id="t" cx="0" cy="0" r="1" gradientTransform="matrix(0 -1.21213 1.47114 0 11.492 7.925)" gradientUnits="userSpaceOnUse"><stop stop-color="#0C0405"/><stop offset="1" stop-color="#321D1D" stop-opacity="0"/></radialGradient><linearGradient id="b" x1="16" x2="16" y1="30.813" y2="27.189" gradientUnits="userSpaceOnUse"><stop stop-color="#432942"/><stop offset="1" stop-color="#432942" stop-opacity="0"/></linearGradient><linearGradient id="h" x1="8.406" x2="16.843" y1="9.625" y2="7.625" gradientUnits="userSpaceOnUse"><stop stop-color="#3E2928"/><stop offset="1" stop-color="#583F3C"/></linearGradient><linearGradient id="l" x1="13.421" x2="13.421" y1="19.531" y2="28.625" gradientUnits="userSpaceOnUse"><stop stop-color="#4B3432"/><stop offset="1" stop-color="#4B3432" stop-opacity="0"/></linearGradient><linearGradient id="p" x1="14.812" x2="11.004" y1="7.56" y2="5.884" gradientUnits="userSpaceOnUse"><stop stop-color="#5D4C4A"/><stop offset="1" stop-color="#5D4C4A" stop-opacity="0"/></linearGradient><linearGradient id="q" x1="8.687" x2="14.437" y1="10.25" y2="10.25" gradientUnits="userSpaceOnUse"><stop stop-color="#3F2928"/><stop offset="1" stop-color="#4D3634"/></linearGradient><linearGradient id="r" x1="10.738" x2="10.738" y1="12.467" y2="9.469" gradientUnits="userSpaceOnUse"><stop stop-color="#311E28"/><stop offset="1" stop-color="#311E28" stop-opacity="0"/></linearGradient><linearGradient id="v" x1="10.39" x2="9.856" y1="6.75" y2="7.981" gradientUnits="userSpaceOnUse"><stop stop-color="#5C4C4B"/><stop offset="1" stop-color="#5C4C4B" stop-opacity="0"/></linearGradient><filter id="a" width="28.811" height="22.656" x="2.094" y="7.188" color-interpolation-filters="sRGB" filterUnits="userSpaceOnUse"><feFlood flood-opacity="0" result="BackgroundImageFix"/><feBlend in="SourceGraphic" in2="BackgroundImageFix" result="shape"/><feColorMatrix in="SourceAlpha" result="hardAlpha" values="0 0 0 0 0 0 0 0 0 0 0 0 0 0 0 0 0 0 127 0"/><feOffset dx="1" dy="-1.5"/><feGaussianBlur stdDeviation="1.5"/><feComposite in2="hardAlpha" k2="-1" k3="1" operator="arithmetic"/><feColorMatrix values="0 0 0 0 0.247059 0 0 0 0 0.172549 0 0 0 0 0.160784 0 0 0 1 0"/><feBlend in2="shape" result="effect1_innerShadow_20020_4301"/></filter><filter id="k" width="15.781" height="10.719" x="5.546" y="18.531" color-interpolation-filters="sRGB" filterUnits="userSpaceOnUse"><feFlood flood-opacity="0" result="BackgroundImageFix"/><feBlend in="SourceGraphic" in2="BackgroundImageFix" result="shape"/><feGaussianBlur result="effect1_foregroundBlur_20020_4301" stdDeviation=".5"/></filter><filter id="o" width="6.851" height="7.657" x="9.699" y="3.361" color-interpolation-filters="sRGB" filterUnits="userSpaceOnUse"><feFlood flood-opacity="0" result="BackgroundImageFix"/><feBlend in="SourceGraphic" in2="BackgroundImageFix" result="shape"/><feGaussianBlur result="effect1_foregroundBlur_20020_4301" stdDeviation=".5"/></filter><filter id="u" width="2.391" height="2.502" x="8.906" y="5.777" color-interpolation-filters="sRGB" filterUnits="userSpaceOnUse"><feFlood flood-opacity="0" result="BackgroundImageFix"/><feBlend in="SourceGraphic" in2="BackgroundImageFix" result="shape"/><feGaussianBlur result="effect1_foregroundBlur_20020_4301" stdDeviation=".25"/></filter></defs></svg>
